img/vector4.svg

<svg width="35" height="35" viewBox="0 0 24 23" fill="none" xmlns="http://www.w3.org/2000/svg">
<path d="M12.0357 0.733032C12.7994 0.733032 13.4184 1.35208 13.4184 2.11572V10.4119H21.7145C22.4782 10.4119 23.0972 11.0309 23.0972 11.7945C23.0972 12.5582 22.4782 13.1772 21.7145 13.1772H13.4184V21.4734C13.4184 22.237 12.7994 22.856 12.0357 22.856C11.2721 22.856 10.653 22.237 10.653 21.4734V13.1772H2.3569C1.59326 13.1772 0.974213 12.5582 0.974213 11.7945C0.974213 11.0309 1.59326 10.4119 2.3569 10.4119H10.653V2.11572C10.653 1.35208 11.2721 0.733032 12.0357 0.733032Z" fill="#E7E7E7"/>
</svg>

<svg xmlns="http://www.w3.org/2000/svg" fill="none" viewBox="0 0 24 23"><path fill="#E7E7E7" d="M12.036.733c.763 0 1.382.62 1.382 1.383v8.296h8.297a1.383 1.383 0 1 1 0 2.765h-8.297v8.296a1.383 1.383 0 0 1-2.765 0v-8.296H2.357a1.383 1.383 0 1 1 0-2.765h8.296V2.116c0-.764.62-1.383 1.383-1.383z"/></svg>
